images/steps/arrow.svg

<svg width="168" height="48" viewBox="0 0 168 48" fill="none" xmlns="http://www.w3.org/2000/svg">
<path fill-rule="evenodd" clip-rule="evenodd" d="M0.743078 38.2693C8.51418 34.1479 16.343 31.1271 24.1748 28.5698C36.3785 24.5931 48.5867 22.3333 60.8663 21.6607C74.8524 20.9021 88.7986 22.1909 102.635 24.8269C116.414 27.4612 130.051 31.373 143.287 36.4288C144.468 36.882 145.601 37.4139 146.82 37.7652C147.5 37.9573 148.159 38.103 148.83 38.2147C139.157 40.0186 125.651 41.7244 115.244 43.4317C108.376 44.5702 102.913 45.7623 100.636 46.1974C100.211 46.2533 99.8961 46.6387 99.9455 47.0808C99.9841 47.4997 100.386 47.8208 100.811 47.7649C103.146 47.6977 108.724 47.7623 115.665 47.4215C122.428 47.0925 130.406 46.285 137.888 45.6228C147.52 44.7677 156.252 43.794 160.403 42.8714C160.95 42.7448 161.416 42.4727 161.85 42.4972C163.746 42.577 164.06 42.0371 164.912 42.0226C166.434 41.5991 166.413 40.2423 166.972 39.3492C168.03 37.6757 167.168 35.5668 165.644 33.6383C164.575 32.3015 161.052 31.0454 159.603 29.8002C154.286 25.3028 148.837 20.853 143.076 16.8287C137.922 13.2003 132.57 9.8464 127.113 6.72397C123.455 4.62837 119.739 2.74277 116.007 0.850939C115.655 0.76026 115.353 0.533738 114.975 0.568149C112.883 0.705606 113.399 1.24183 111.453 2.03031C111.279 1.9278 111.06 2.00132 110.963 2.15865C110.861 2.33297 110.917 2.54639 111.091 2.6489C111.348 4.72814 110.661 4.55301 111.581 6.45188C111.72 6.75363 112.03 6.906 112.262 7.16476C119.283 11.8449 126.049 17.0096 132.901 22.1482C134.98 23.7214 137.065 25.2776 139.144 26.8508C128.34 22.4575 117.233 18.8391 105.933 16.4796C96.2633 14.4495 86.4471 13.2905 76.6547 13.2195C60.4036 13.0688 44.1013 15.5204 28.4848 21.7122C18.7659 25.5804 9.4907 31.0185 0.42683 37.7676C0.292111 37.8723 0.246686 38.0483 0.327992 38.1938C0.432496 38.3286 0.608359 38.3739 0.743078 38.2693Z" fill="#FF5100"/>
</svg>

<svg width="168" height="48" fill="none" xmlns="http://www.w3.org/2000/svg"><path fill-rule="evenodd" clip-rule="evenodd" d="M.743 38.27c7.771-4.122 15.6-7.143 23.432-9.7 12.204-3.977 24.412-6.237 36.691-6.91 13.986-.758 27.933.53 41.769 3.167 13.779 2.634 27.416 6.546 40.652 11.602 1.181.453 2.314.985 3.533 1.336.68.192 1.339.338 2.01.45-9.673 1.804-23.179 3.51-33.586 5.217-6.868 1.138-12.331 2.33-14.608 2.765a.8.8 0 00-.69.884c.038.419.44.74.865.684 2.335-.067 7.913-.003 14.854-.343 6.763-.33 14.741-1.137 22.223-1.8 9.632-.854 18.364-1.828 22.515-2.75.547-.127 1.013-.4 1.447-.375 1.896.08 2.21-.46 3.062-.474 1.522-.424 1.501-1.78 2.06-2.674 1.058-1.673.196-3.782-1.328-5.71-1.069-1.338-4.592-2.594-6.041-3.839-5.317-4.497-10.766-8.947-16.527-12.971-5.154-3.629-10.506-6.983-15.963-10.105-3.658-2.096-7.374-3.981-11.106-5.873-.352-.09-.654-.317-1.032-.283-2.092.138-1.576.674-3.522 1.462a.366.366 0 00-.49.129.354.354 0 00.128.49c.257 2.08-.43 1.904.49 3.803.139.302.449.454.681.713 7.021 4.68 13.787 9.845 20.639 14.983 2.079 1.573 4.164 3.13 6.243 4.703-10.804-4.393-21.911-8.012-33.211-10.371-9.67-2.03-19.486-3.19-29.278-3.26-16.251-.151-32.554 2.3-48.17 8.492C18.765 25.58 9.49 31.018.427 37.768a.331.331 0 00-.099.426c.104.135.28.18.415.075z" fill="#FF5100"/></svg>
